X: 10310
T: Dolly's Delight
R: hornpipe
M: 4/4
K: Amajor
a/g/f|:e2 cA EA cA|FA dA EA cA|DF Bd ce ac'|ba gf e/f/e d/c/B|
e2 cA EA cA|FA dA EA cA|DF Bd cA EC|1 DE GB AB cd:|2 DE GB Ad Bd:|
cE E/E/E CE cc|dF F/F/F DF d^d|eA ce fe dc|Ba gf e/f/e d/c/B|
[1 cA EA c/B/A ez|dA FA dA fA|Aa gf ec dB|GA Bc Ad Bd:|
[2 cA EA c/B/A ec|dA FA de fd|eg af ec dB|GA Bc Aa gf||

